X: 6612
T: Causewayhead Written By Bernard Evans
R: hornpipe
M: 4/4
K: Gmajor
(3def|:g>d B>dc2d>c|B>d B>GA2d>c|B2B>G c2d>c|B>d B>GA2(3def|
g>d B>dc2d>c|B>d B>GA2d>c|B>d B>G A>c A>F|1 G2G2G2(3def:|2 G2G2G2A>G||
K:DMaj
|:F>A d>cd2e>d|c>e g>fg2a>g|f>a f>d e>g e>c|e>dc>B A>GF>=F|
F>A d>cd2e>d|c>e g>fg2a>g|(3fga f>d e>g e>c|1 d2d2d2A>G:|2 d2d2d2(3def||

